!! 00000] TT[00
!!!OTL: Lianlian hang
!!!ARE: Asia, China,Gansu, Lintao
!! Ethnic Group: Han
!! I, 142
!!!SCT: C1149
!!!YEM: Copyright 1995, estate of Helmut Schaffrath.
**kern
*ICvox
*Ivox
*M2/4
*k[b-]
*F:
{8cc
16ff
16dd
8cc
8cc
=1
8cc
16ff
16dd
8cc
8cc}
=2
{8cc
16cc
16dd
8cc
16cc
16f
=3
8g
8a
8g
8c}
=4
{8cc
16cc
16dd
8cc
16cc
16f
=5
8g
8a
8g
8c}
=6
{16cc
16cc
16cc
16a
16cc
16cc
16cc
16a
=7
8g
16g
16a
8c
16c
16d}
=8
{8f
8g
16g
16f
8d
=9
8.c
16d
4c}
=10
{8f
16f
16d
8f
16f
16d
=11
8c
16c
16d
8c
16c
16c}
=12
{8cc
16dd
16dd
16dd
16cc
16b-
16a
=13
8.g
16a
4g}
=14
{16cc
16cc
16cc
16a
16cc
16cc
16cc
16a
=15
8g
16g
16a
8c
16c
16d}
=16
{8f
8g
16g
16f
8d
=17
8.c
16d
4c}
==
!!!AGN: Arbeitslied, Dahang HAOZI, fÅr Feststampfen
!!!ONB: ESAC (Essen Associative Code) Database: CHINA_013
!!!AMT: simple duple
!!!AIN: vox
!!!EED: Helmut Schaffrath
!!!EEV: 1.0
*-
